X: 55
T:Garret Barry's
M:6/8
L:1/8
S:Kevin Burke
R:jig
K:DMix
DED G3  |ABA c  |dcA d2 (=f|f)ed cAG|=FEF GFG|AGA c2 (d|d)cA GEA|1 DED A
,3  :|2DED D2 (d|:d)cA d2 e|fgf efe|dcA c2 d|e/f/gd ecA|dcA d2 e|fed g2
(d|d)cA GEA|1DED D2 d:|2 DED A,3  ||
